static/img/kroki/0f9f0759c5b3d15a88ce01bc71a4951f.svg

<?xml version="1.0" encoding="us-ascii" standalone="no"?><svg xmlns="http://www.w3.org/2000/svg" xmlns:xlink="http://www.w3.org/1999/xlink" contentStyleType="text/css" height="374px" preserveAspectRatio="none" style="width:343px;height:374px;" version="1.1" viewBox="0 0 343 374" width="343px" zoomAndPan="magnify"><defs/><g><!--class azure_storage_queue--><g id="elem_azure_storage_queue"><rect codeLine="23" fill="#3D176E" height="39.7891" id="azure_storage_queue" rx="2.5" ry="2.5" style="stroke:#000D19;stroke-width:0.5;" width="220" x="87" y="328.58"/><ellipse cx="102" cy="348.4745" fill="#ADD1B2" rx="11" ry="11" style="stroke:#181818;stroke-width:1.0;"/><path d="M104.9688,354.1152 Q104.3906,354.412 103.75,354.5527 Q103.1094,354.7089 102.4063,354.7089 Q99.9063,354.7089 98.5781,353.0683 Q97.2656,351.412 97.2656,348.287 Q97.2656,345.162 98.5781,343.5058 Q99.9063,341.8495 102.4063,341.8495 Q103.1094,341.8495 103.75,342.0058 Q104.4063,342.162 104.9688,342.4589 L104.9688,345.1777 Q104.3438,344.5995 103.75,344.3339 Q103.1563,344.0527 102.5313,344.0527 Q101.1875,344.0527 100.5,345.1308 Q99.8125,346.1933 99.8125,348.287 Q99.8125,350.3808 100.5,351.4589 Q101.1875,352.5214 102.5313,352.5214 Q103.1563,352.5214 103.75,352.2558 Q104.3438,351.9745 104.9688,351.3964 L104.9688,354.1152 Z " fill="#000000"/><text fill="#D9B8FF" font-family="Helvetica" font-size="17" lengthAdjust="spacing" textLength="178" x="121" y="354.3598">azure_storage_queue</text></g><!--class microsoft_resource--><g id="elem_microsoft_resource"><rect codeLine="26" fill="#3D176E" height="39.7891" id="microsoft_resource" rx="2.5" ry="2.5" style="stroke:#000D19;stroke-width:0.5;" width="200" x="7" y="167.79"/><ellipse cx="22" cy="187.6845" fill="#ADD1B2" rx="11" ry="11" style="stroke:#181818;stroke-width:1.0;"/><path d="M24.9688,193.3252 Q24.3906,193.622 23.75,193.7627 Q23.1094,193.9189 22.4063,193.9189 Q19.9063,193.9189 18.5781,192.2783 Q17.2656,190.622 17.2656,187.497 Q17.2656,184.372 18.5781,182.7158 Q19.9063,181.0595 22.4063,181.0595 Q23.1094,181.0595 23.75,181.2158 Q24.4063,181.372 24.9688,181.6689 L24.9688,184.3877 Q24.3438,183.8095 23.75,183.5439 Q23.1563,183.2627 22.5313,183.2627 Q21.1875,183.2627 20.5,184.3408 Q19.8125,185.4033 19.8125,187.497 Q19.8125,189.5908 20.5,190.6689 Q21.1875,191.7314 22.5313,191.7314 Q23.1563,191.7314 23.75,191.4658 Q24.3438,191.1845 24.9688,190.6064 L24.9688,193.3252 Z " fill="#000000"/><text fill="#D9B8FF" font-family="Helvetica" font-size="17" lengthAdjust="spacing" textLength="158" x="41" y="193.5698">microsoft_resource</text></g><!--class queue--><g id="elem_queue"><rect codeLine="29" fill="#3D176E" height="39.7891" id="queue" rx="2.5" ry="2.5" style="stroke:#000D19;stroke-width:0.5;" width="94" x="242" y="167.79"/><ellipse cx="257" cy="187.6845" fill="#ADD1B2" rx="11" ry="11" style="stroke:#181818;stroke-width:1.0;"/><path d="M259.9688,193.3252 Q259.3906,193.622 258.75,193.7627 Q258.1094,193.9189 257.4063,193.9189 Q254.9063,193.9189 253.5781,192.2783 Q252.2656,190.622 252.2656,187.497 Q252.2656,184.372 253.5781,182.7158 Q254.9063,181.0595 257.4063,181.0595 Q258.1094,181.0595 258.75,181.2158 Q259.4063,181.372 259.9688,181.6689 L259.9688,184.3877 Q259.3438,183.8095 258.75,183.5439 Q258.1563,183.2627 257.5313,183.2627 Q256.1875,183.2627 255.5,184.3408 Q254.8125,185.4033 254.8125,187.497 Q254.8125,189.5908 255.5,190.6689 Q256.1875,191.7314 257.5313,191.7314 Q258.1563,191.7314 258.75,191.4658 Q259.3438,191.1845 259.9688,190.6064 L259.9688,193.3252 Z " fill="#000000"/><text fill="#D9B8FF" font-family="Helvetica" font-size="17" lengthAdjust="spacing" textLength="52" x="276" y="193.5698">queue</text></g><!--class resource--><g id="elem_resource"><rect codeLine="32" fill="#3D176E" height="39.7891" id="resource" rx="2.5" ry="2.5" style="stroke:#000D19;stroke-width:0.5;" width="113" x="140.5" y="7"/><ellipse cx="155.5" cy="26.8945" fill="#ADD1B2" rx="11" ry="11" style="stroke:#181818;stroke-width:1.0;"/><path d="M158.4688,32.5352 Q157.8906,32.832 157.25,32.9727 Q156.6094,33.1289 155.9063,33.1289 Q153.4063,33.1289 152.0781,31.4883 Q150.7656,29.832 150.7656,26.707 Q150.7656,23.582 152.0781,21.9258 Q153.4063,20.2695 155.9063,20.2695 Q156.6094,20.2695 157.25,20.4258 Q157.9063,20.582 158.4688,20.8789 L158.4688,23.5977 Q157.8438,23.0195 157.25,22.7539 Q156.6563,22.4727 156.0313,22.4727 Q154.6875,22.4727 154,23.5508 Q153.3125,24.6133 153.3125,26.707 Q153.3125,28.8008 154,29.8789 Q154.6875,30.9414 156.0313,30.9414 Q156.6563,30.9414 157.25,30.6758 Q157.8438,30.3945 158.4688,29.8164 L158.4688,32.5352 Z " fill="#000000"/><text fill="#D9B8FF" font-family="Helvetica" font-size="17" lengthAdjust="spacing" textLength="71" x="174.5" y="32.7798">resource</text></g><!--reverse link microsoft_resource to azure_storage_queue--><g id="link_microsoft_resource_azure_storage_queue"><path codeLine="35" d="M126.7324,223.5014 C144.0224,254.0214 168.78,297.69 186.11,328.25 " fill="none" id="microsoft_resource-backto-azure_storage_queue" style="stroke:#FFAF37;stroke-width:2.0;"/><polygon fill="none" points="117.86,207.84,121.5119,226.4589,131.9529,220.544,117.86,207.84" style="stroke:#FFAF37;stroke-width:2.0;"/></g><!--reverse link queue to azure_storage_queue--><g id="link_queue_azure_storage_queue"><path codeLine="36" d="M268.8773,223.4153 C251.1973,253.9353 225.84,297.69 208.14,328.25 " fill="none" id="queue-backto-azure_storage_queue" style="stroke:#FFAF37;stroke-width:2.0;"/><polygon fill="none" points="277.9,207.84,263.6855,220.4078,274.0691,226.4229,277.9,207.84" style="stroke:#FFAF37;stroke-width:2.0;"/></g><!--reverse link resource to microsoft_resource--><g id="link_resource_microsoft_resource"><path codeLine="37" d="M177.2676,62.7114 C159.9776,93.2314 135.22,136.9 117.89,167.46 " fill="none" id="resource-backto-microsoft_resource" style="stroke:#FFAF37;stroke-width:2.0;"/><polygon fill="none" points="186.14,47.05,172.0471,59.754,182.4881,65.6689,186.14,47.05" style="stroke:#FFAF37;stroke-width:2.0;"/></g><!--reverse link resource to queue--><g id="link_resource_queue"><path codeLine="38" d="M217.1227,62.6253 C234.8027,93.1453 260.16,136.9 277.86,167.46 " fill="none" id="resource-backto-queue" style="stroke:#FFAF37;stroke-width:2.0;"/><polygon fill="none" points="208.1,47.05,211.9309,65.6329,222.3145,59.6178,208.1,47.05" style="stroke:#FFAF37;stroke-width:2.0;"/></g><!--SRC=[XP1FJm913CNl-oacuKm24WKIBq1Yz4ACU2TbfxDCs9rYfoi1zRihBffXXZ_Nlb_VU-tIQbHOhMMhAgmMo3xpA-lMm52f4JDj9bGIgvOnO7hzM7mW9rU1ALIe7h5yHx4vnCJhqkOhXzwhcq0QGxugc6gd6tjXSFv7GYS1DId1-v48sqKj69JHmyN0c9YCJLiztUtVOO8HQ-G3qkbqT7SO8rUZBjxzJypi3bKtVDgK19EQISGlTR7bdWXA9eV-wMSxFeFMrXNgDfYzD9tO8H_DPqlGjDdJ1aeVndX1HfBj6YV9LJWSQDC_2J-TWxDy_pe5kvfnxeKO2fo_rLYZ-iYohuDSsPp9av4vewUQyoCrmO-X4yltd-rs-rHerdYTroEBr3icchLl]--></g></svg>

<svg xmlns="http://www.w3.org/2000/svg" width="343" height="374" viewBox="0 0 343 374"><rect width="220" height="39.789" x="87" y="328.58" fill="#3D176E" rx="2.5" ry="2.5" style="stroke:#000d19;stroke-width:.5"/><circle cx="102" cy="348.474" r="11" fill="#ADD1B2" style="stroke:#181818;stroke-width:1"/><path d="M104.969 354.115q-.578.297-1.219.438-.64.156-1.344.156-2.5 0-3.828-1.64-1.312-1.657-1.312-4.782t1.312-4.781q1.328-1.656 3.828-1.656.703 0 1.344.156.656.156 1.219.453v2.719q-.625-.579-1.219-.844-.594-.281-1.219-.281-1.344 0-2.031 1.078-.687 1.062-.687 3.156t.687 3.172q.688 1.062 2.031 1.062.625 0 1.219-.265.594-.281 1.219-.86z"/><text x="121" y="354.36" fill="#D9B8FF" font-family="Helvetica" font-size="17" textLength="178">azure_storage_queue</text><rect width="200" height="39.789" x="7" y="167.79" fill="#3D176E" rx="2.5" ry="2.5" style="stroke:#000d19;stroke-width:.5"/><circle cx="22" cy="187.685" r="11" fill="#ADD1B2" style="stroke:#181818;stroke-width:1"/><path d="M24.969 193.325q-.578.297-1.219.438-.64.156-1.344.156-2.5 0-3.828-1.64-1.312-1.657-1.312-4.782t1.312-4.781q1.328-1.656 3.828-1.656.703 0 1.344.156.656.156 1.219.453v2.719q-.625-.578-1.219-.844-.594-.281-1.219-.281-1.343 0-2.031 1.078-.687 1.062-.687 3.156t.687 3.172q.688 1.062 2.031 1.062.625 0 1.219-.265.594-.281 1.219-.86z"/><text x="41" y="193.57" fill="#D9B8FF" font-family="Helvetica" font-size="17" textLength="158">microsoft_resource</text><rect width="94" height="39.789" x="242" y="167.79" fill="#3D176E" rx="2.5" ry="2.5" style="stroke:#000d19;stroke-width:.5"/><circle cx="257" cy="187.685" r="11" fill="#ADD1B2" style="stroke:#181818;stroke-width:1"/><path d="M259.969 193.325q-.578.297-1.219.438-.64.156-1.344.156-2.5 0-3.828-1.64-1.312-1.657-1.312-4.782t1.312-4.781q1.328-1.656 3.828-1.656.703 0 1.344.156.656.156 1.219.453v2.719q-.625-.578-1.219-.844-.594-.281-1.219-.281-1.344 0-2.031 1.078-.687 1.062-.687 3.156t.687 3.172q.688 1.062 2.031 1.062.625 0 1.219-.265.594-.281 1.219-.86z"/><text x="276" y="193.57" fill="#D9B8FF" font-family="Helvetica" font-size="17" textLength="52">queue</text><rect width="113" height="39.789" x="140.5" y="7" fill="#3D176E" rx="2.5" ry="2.5" style="stroke:#000d19;stroke-width:.5"/><circle cx="155.5" cy="26.895" r="11" fill="#ADD1B2" style="stroke:#181818;stroke-width:1"/><path d="M158.469 32.535q-.578.297-1.219.438-.64.156-1.344.156-2.5 0-3.828-1.64-1.312-1.657-1.312-4.782t1.312-4.781q1.328-1.656 3.828-1.656.703 0 1.344.156.656.156 1.219.453v2.719q-.625-.578-1.219-.844-.594-.281-1.219-.281-1.344 0-2.031 1.078-.687 1.062-.687 3.156t.687 3.172q.688 1.062 2.031 1.062.625 0 1.219-.265.594-.281 1.219-.86z"/><text x="174.5" y="32.78" fill="#D9B8FF" font-family="Helvetica" font-size="17" textLength="71">resource</text><g fill="none"><path d="M126.732 223.501c17.29 30.52 42.048 74.189 59.378 104.749" style="stroke:#ffaf37;stroke-width:2"/><path d="m117.86 207.84 3.652 18.619 10.44-5.915z" style="stroke:#ffaf37;stroke-width:2"/></g><g fill="none"><path d="M268.877 223.415c-17.68 30.52-43.037 74.275-60.737 104.835" style="stroke:#ffaf37;stroke-width:2"/><path d="m277.9 207.84-14.214 12.568 10.383 6.015z" style="stroke:#ffaf37;stroke-width:2"/></g><g fill="none"><path d="M177.268 62.711c-17.29 30.52-42.048 74.189-59.378 104.749" style="stroke:#ffaf37;stroke-width:2"/><path d="m186.14 47.05-14.093 12.704 10.441 5.915z" style="stroke:#ffaf37;stroke-width:2"/></g><g fill="none"><path d="M217.123 62.625c17.68 30.52 43.037 74.275 60.737 104.835" style="stroke:#ffaf37;stroke-width:2"/><path d="m208.1 47.05 3.83 18.583 10.385-6.015z" style="stroke:#ffaf37;stroke-width:2"/></g></svg>
